X:328
T: Xingfu Huar,biandixiang
N: C1827
O: China,Ningxia Yanchi
S: I, 160, 2)]
N: Han
R: Xiaodiao, Chujiamen]
M: 2/4
L: 1/16
K: F
fdc4dc | B2AGF2C2 | G2c2c2BG | F2BAG4 | G2c2c2BG | F2BAG4 |
c2c4F2 | BcBGF2D2 | C2C4F2 | C8 |
F3Gc2dc | B2AGF2C2 | c2c4F2 | BcBGF2D2 | C2C4F2 | C8

@@@ Tune index: 6883
